T: Da South End
M: 6/8
L: 1/8
K: Amaj
cAA dBB | ecc fdd | ecc acA | GBB B2 e |cAA d2 B | ecc f2 d | eag fed | cAG A2 :|acc eAA | EAA cAA | ecc acA | [1 GBB B2 g | acc eAA | EAA cAA | Bcd efg | acA e2 :|[2 GBB B2 e | cAA d2 B | ecc f2 d | eag fed | cAG A2 |]
